v2/src/assets/icones/icon__money.svg

<svg width="39" height="24" viewBox="0 0 39 24" fill="none" xmlns="http://www.w3.org/2000/svg">
<path d="M21.8929 13.6049H20.9429V8.37987C20.9429 8.11743 20.7304 7.90487 20.4679 7.90487H19.6616C19.3802 7.90487 19.1053 7.988 18.8713 8.14415L17.9611 8.75097C17.9092 8.78553 17.8646 8.82998 17.8299 8.88179C17.7952 8.93359 17.771 8.99173 17.7587 9.05288C17.7465 9.11404 17.7464 9.177 17.7585 9.23818C17.7706 9.29936 17.7947 9.35755 17.8293 9.40943L18.3565 10.1997C18.3911 10.2516 18.4356 10.2962 18.4874 10.3309C18.5392 10.3657 18.5973 10.3898 18.6585 10.4021C18.7196 10.4143 18.7826 10.4144 18.8438 10.4023C18.9049 10.3902 18.9631 10.3661 19.015 10.3315L19.0429 10.3131V13.6049H18.0929C17.8305 13.6049 17.6179 13.8174 17.6179 14.0799V15.0299C17.6179 15.2923 17.8305 15.5049 18.0929 15.5049H21.8929C22.1554 15.5049 22.3679 15.2923 22.3679 15.0299V14.0799C22.3679 13.8174 22.1554 13.6049 21.8929 13.6049ZM37.0929 0.304871H2.89292C1.84376 0.304871 0.99292 1.15571 0.99292 2.20487V21.2049C0.99292 22.254 1.84376 23.1049 2.89292 23.1049H37.0929C38.1421 23.1049 38.9929 22.254 38.9929 21.2049V2.20487C38.9929 1.15571 38.1421 0.304871 37.0929 0.304871ZM3.84292 20.2549V16.4549C5.94183 16.4549 7.64292 18.156 7.64292 20.2549H3.84292ZM3.84292 6.95487V3.15487H7.64292C7.64292 5.25378 5.94183 6.95487 3.84292 6.95487ZM19.9929 18.3549C16.8449 18.3549 14.2929 15.3772 14.2929 11.7049C14.2929 8.03193 16.8449 5.05487 19.9929 5.05487C23.141 5.05487 25.6929 8.03193 25.6929 11.7049C25.6929 15.3784 23.1398 18.3549 19.9929 18.3549ZM36.1429 20.2549H32.3429C32.3429 18.156 34.044 16.4549 36.1429 16.4549V20.2549ZM36.1429 6.95487C34.044 6.95487 32.3429 5.25378 32.3429 3.15487H36.1429V6.95487Z" fill="black"/>
</svg>

<?xml version="1.0" encoding="utf-8"?>
<!-- Generator: Adobe Illustrator 26.3.1, SVG Export Plug-In . SVG Version: 6.00 Build 0)  -->
<svg version="1.1" id="Camada_1" xmlns="http://www.w3.org/2000/svg" xmlns:xlink="http://www.w3.org/1999/xlink" x="0px" y="0px"
	 viewBox="0 0 39 24" style="enable-background:new 0 0 39 24;" xml:space="preserve">
<style type="text/css">
	.st0{fill:#391741;}
</style>
<path class="st0" d="M21.9,13.6h-1V8.4c0-0.3-0.2-0.5-0.5-0.5h-0.8c-0.3,0-0.6,0.1-0.8,0.2L18,8.8c-0.1,0-0.1,0.1-0.1,0.1
	c0,0.1-0.1,0.1-0.1,0.2c0,0.1,0,0.1,0,0.2c0,0.1,0,0.1,0.1,0.2l0.5,0.8c0,0.1,0.1,0.1,0.1,0.1c0.1,0,0.1,0.1,0.2,0.1
	c0.1,0,0.1,0,0.2,0c0.1,0,0.1,0,0.2-0.1l0,0v3.3h-1c-0.3,0-0.5,0.2-0.5,0.5V15c0,0.3,0.2,0.5,0.5,0.5h3.8c0.3,0,0.5-0.2,0.5-0.5
	v-0.9C22.4,13.8,22.2,13.6,21.9,13.6z M37.1,0.3H2.9C1.8,0.3,1,1.2,1,2.2v19c0,1,0.9,1.9,1.9,1.9h34.2c1,0,1.9-0.9,1.9-1.9v-19
	C39,1.2,38.1,0.3,37.1,0.3z M3.8,20.3v-3.8c2.1,0,3.8,1.7,3.8,3.8H3.8z M3.8,7V3.2h3.8C7.6,5.3,5.9,7,3.8,7z M20,18.4
	c-3.1,0-5.7-3-5.7-6.7c0-3.7,2.6-6.7,5.7-6.7c3.1,0,5.7,3,5.7,6.7C25.7,15.4,23.1,18.4,20,18.4z M36.1,20.3h-3.8
	c0-2.1,1.7-3.8,3.8-3.8V20.3z M36.1,7c-2.1,0-3.8-1.7-3.8-3.8h3.8V7z"/>
</svg>
